X: 12764
T: Father Quinn's
R: jig
M: 6/8
K: Edorian
|:A|~B3 BAF|BdB BAF|AFE DB,A,|DFA BAF|
~B3 BAF|BdB BAF|AFE DB,A,|B,EE E2:|
|:B|efe BAB|ede gfe|dcd edB|AFE DEF|
GBG FAF|EFE EDB,|DFA dcd|BAF E2:|

